assets/img/blocks/form/dropdown.svg

<?xml version="1.0" encoding="UTF-8"?>
<svg width="20px" height="11px" viewBox="0 0 20 11" version="1.1" xmlns="http://www.w3.org/2000/svg" xmlns:xlink="http://www.w3.org/1999/xlink">
    <!-- Generator: Sketch 58 (84663) - https://sketch.com -->
    <title>dropdown</title>
    <desc>Created with Sketch.</desc>
    <g id="Page-1" stroke="none" stroke-width="1" fill="none" fill-rule="evenodd">
        <path d="M17,0 C18.6568542,0 20,1.34314575 20,3 L20,8 C20,9.65685425 18.6568542,11 17,11 L3,11 C1.34314575,11 0,9.65685425 0,8 L0,3 C0,1.34314575 1.34314575,0 3,0 L17,0 Z M17,2 L3,2 C2.44771525,2 2,2.44771525 2,3 L2,8 C2,8.55228475 2.44771525,9 3,9 L17,9 C17.5522847,9 18,8.55228475 18,8 L18,3 C18,2.44771525 17.5522847,2 17,2 Z M11.2208729,2.88097926 L16.7954422,2.98633721 L14.0608365,5.72094292 L11.2208729,2.88097926 Z" id="dropdown" fill="#535F6A" fill-rule="nonzero"></path>
    </g>
</svg>

<svg xmlns="http://www.w3.org/2000/svg" width="20" height="11"><path fill="#535F6A" fill-rule="nonzero" d="M17 0a3 3 0 0 1 3 3v5a3 3 0 0 1-3 3H3a3 3 0 0 1-3-3V3a3 3 0 0 1 3-3h14Zm0 2H3a1 1 0 0 0-1 1v5a1 1 0 0 0 1 1h14a1 1 0 0 0 1-1V3a1 1 0 0 0-1-1Zm-5.78.881 5.575.105-2.734 2.735-2.84-2.84Z"/></svg>
